X:1
T:The Well-Tempered Clavier Book I - IV
T:BWV 849    (A = 415 Hz)
T:Johann Sebastian Bach
%%score { ( 1 2 5 7 ) | ( 3 4 6 ) }
L:1/8
Q:1/4=113
M:6/4
K:E
V:1 treble nm="Harp"
V:2 treble 
V:5 treble 
V:7 treble 
V:3 bass 
V:4 bass 
V:6 bass 
V:1
"^Praeludium" GFEDEC !arpeggio!c3 B A2 | A A/4G/4A/4G/4 A/<G/- G3- G4 F2 | %2
 dc^B^ABG !arpeggio!g3 f e2 | e d- d4- d4 g2 | d/c/^B ce a2- agfedc | c/B/A Bd g2- gfedcB | %6
 B/A/G Ac f2- fedcBA | A/4G/4A/4G/4A/4G/4-G3/2- G6 F A/4G/4A3/2- | AGFEFD dc^B^ABG | agfefd e6- | %10
 e3 d c2 c3 B ^A2- | AG^^F^EFD !arpeggio!d6- | d^Bcded c =B2 c B/4^A/4G/4A/4-A | %13
 B,/4C/4D/4G/4 G6- G3 B/4A/4B3/2- | BG^Ac e2- edeg f2 | d6- d4 c2- | c^A^Bdfg =agfefd | e6- e6- | %18
 e=d^eg b2- bdcBAG | A/4G/4A3/2- A4- AGAc f2- | fedcBA A/G/F GB e2- | edcBAG G/F/E FA d2- | %22
 dc^B^AGF F/E/D EG c2- | cBAGAF fe=dcdA | x6 ^b4 g2 | g6- gfedec | f6- fedcdG | e6- e_defga | %28
 c/4^B/4A/4B/4c/4B/4c/4B/4 c c d2 B,/4C/4D/4F/4-F- F4- | FEDCD^B, AGFEFD | ^B=AGFGE dcB^ABG | %31
 g2 fedc ^Bcdf A2- | AGAF a2- a2 gfed | e4- ea !arpeggio!e3 f e/4d/4c/4d/4-d | c6- c3 e d2 | %35
 e6- e3 ^B c2- | cdedcB x4 ^B2 | c6- c3 d[Q:1/4=105] ^B2[Q:1/4=110] | %38
[Q:1/4=100] c4-[Q:1/4=91][Q:1/4=69] c^B c6 |[M:2/2] z8 |"^Fuga" z8[Q:1/4=144] | z8 | z8 | z8 | z8 | %45
 z8 | x8 | z8 | z8 | x8 | x8 | x8 | x8 | z4 c4 | ^B4 e4 | d8 | c6 d2 | e2 d2 c4 | B4 c4 | d4 z4 | %60
 z2 e2 d2 c2 | B2 d2 g4- | g2 f2 g2 a2 | b8- | b2 a2 g2 f2 | gfed c4- | c4 B4- | B2 c2 B2 A2 | %68
 G4 ^A2 B2 | c4 B4- | B4 ^A4 | B8- | B2 c2 d2 e2- | e4 d4 | e2 d2 e2 f2 | gfga gfeg | fefg fedf | %77
 edef edce | dcde dcBd | cBcd cB^Ac | B4- BcdB | c4- c2 e2 | d4- d2 f2 | e8- | e2 d4 c2- | %85
 c2 ^B^A B2 d2 | gfga gfeg | fefg fedf | ^e4 a4 | g8- | g2 fe =d4 | z2 c2 f2 f2 | f2 e=d e4- | %93
 e2 =dc d4- | d4 c4 | f4 e4- | e3 f e=dce | =dcde dcBd | c8 | ^B4 e4 | d8- | d2 G2 c2 c2 | %102
 c2 BA B4- | B4 A4 | G4 z4 | d8 | ^^c4 f4 | ^e4 =e4 | dcde dcBd | cBcd cedc | =c4 B4 | ^A4 =A4 | %112
 G4 z4 | z8 | z8 | c8 | ^B4 e4 | d8- | d4 c4- | c4 ^B4 | z2 cd e2 f2 | gfga gfeg | fefg fedf | %123
 edef e=dce | =dcde dcBd | cBc=d cBAc | BABc BAGB | A4 z4 | c8 | ^B4 e4 | d8- | d2 c2 g2 g2 | %132
 g2 fe f4 | e8 | d4 =g4 | f4 F4 | ^E4 z4 | z8 | z2 ^B2 f2 f2 | f2 ed e2 dc | d2 ^B2 c4- | c8 | %142
 ^B4 =B4 | ^A4 =A4 | G8 | ^A4 ^B4 | c8 | ^B4 e4- | e4 d2 c2 | ^B4 c4- | c4 ^B4 | c8- | c8- | c8- | %154
 !fermata!c8 |] %155
V:2
 z6 !arpeggio![EG]4 F2 | E6- E4 F2- | F6 !arpeggio![Gd]4 [Gc]2 | [G^B]6- [GB]4 [GB]2 | %4
 A2 z2 z2 A6 | A2 z2 z2 G6 | G2 z2 z2 F6 | x12 | x12 | z6 z dcBc^A | %10
 G ^^F2 ^F ^A/4G/4A3/2 D3 ^E ^^F/4^E/4F3/2- | F x5 !arpeggio![^^F^A]4 G2- | G6- G4 ^^F2 | %13
 B,/D/ [B,D]6- [B,D]2 x3 | x12 | x4 B2- B4 x2 | x12 | x4 c2- c4 x2 | x12 | x12 | x12 | x12 | x12 | %23
 x12 | agfef^d- d6- | d3 e ^B2 c6- | c3 ^B d2 G6- | G3 cFG A6 | G6 ^B,/D/ [B,D]- [B,D]4 | x12 | %30
 x12 | x12 | x12 | z dc^B c2 !arpeggio!c4 B2 | z =B^AG^^FG G^^F- F4- | FG^AGBA A6- | %36
 A x x4 ^AG^^F^E^FD | =E=B=AGFA =E3 F DF- | FGAF- F2 G6 |[M:2/2] x8 | x8 | x8 | x8 | x8 | x8 | x8 | %46
 x8 | x8 | x8 | x8 | x8 | z4 G4 | ^E4 A4 | G4 F4- | F4 c4- | c4 B4- | B4 A4 | G4 A4- | A2 G2 G4 | %59
 ^A4 G4- | G4 ^^F4 | G4 B,4 | C6 C2 | D2 C2 D2 ^E2 | F4 A4 | G4 z BAG | F2 A2 G2 F2 | ^E4 F4- | %68
 F2 E6- | E4 D4 | E8- | E2 D2 E2 FG | F4 B4- | B2 c2 B2 A2 | G4 z4 | x8 | x8 | x8 | x8 | x8 | x8 | %81
 x8 | x8 | z4 c4 | ^B4 e4 | d8- | d4 c4- | c4 ^B2 =B2- | BBc=d cBAc | BABc BAGB | A4- AcBA | %91
 G4 z4 | x8 | z4 A4 | G4 c4 | B8- | B2 E2 A2 A2 | A2 GF G4- | G2 CD E2 F2 | GFGA GFEG | FEFG FEDF | %101
 EDEF EDCE | DCDE =DCB,D | CB,C=D CE^DC | ^B,4 C4 | D2 D2 G^A B2- | B2 ^A2 d2 d2 | d2 c^B c4- | %108
 c4 B4 | ^A4 =A4- | A2 D2 G2 G2- | G2 F^E F4- | F4 E4 | D4 C4 | D8 | x8 | z2 G2 c2 c2 | %117
 c2 ^B^A BcdB | GFGA GFEG | FEFG FEDF | EGAB cd^Bc | d2 z2 z4 | x8 | x8 | z2 F2 B2 B2 | B2 AG A4 | %126
 G8- | GGF^E F4 | G4- GGFE | DAGF EGc=B | AGAF G4- | G2 c^B c4- | c2 ^A2 d2 d2 | d2 cB c4 | B4 B4 | %135
 ^A4 =d4 | c8 | G2 G2 c2 c2 | c2 ^B^A Bc d2- | d2 c^B c4 | F4 G4- | G4 F4- | F2 z2 x4 | %143
 z2 C2 F2 F2 | F2 ED E4- | E2 FG =A2 G2- | G2 E2 A2 A2 | A2 GF G2 ^A^B | c4 ^A4 | G4 G4- | G8- | %151
 G4 F4 | ^E4 A4 | G8- | G8 |] %155
V:3
 x4 x8 | G,F,E,D,E,C, E,G,C B, A,2 | G,6- G,4 C2 | DC^B,^A,B,G, B,DF E D2 | E6 D6- | D6 C6- | %6
 C6 B,6- | B,A,G,F,G,E, G,B,E D C2 | ^B,12- | B,3 C D2 C6 | %10
 ^A,,D,C,B,,C,A,, ^^F,,B,,^A,,G,,A,,F,, | C,,6- C,,C,B,,^A,,B,,G,, | x6 D,6- | %13
 D,C,B,,^A,,B,,G,, B,,D,G,E,F,D, | E,6 F,/4E,/4F,/- F,2 G, ^A,2 | z[I:staff -1] cB^ABF- [DF-]6 | %16
 F2[I:staff +1] x2 D,2- D,6 | z[I:staff -1] dc^BcG- [EG]6 |[I:staff +1] z2 z C =D2- D2 G,2 C2- | %19
 CB,A,G,A,F, F3 EDC | B,3 C D2- D3 G,C^B, | C/4B,/4C3/2- C4- C3 ^B,C^A, | %22
 ^B,/4A,/4B,/- B,2 C D2 C6 | A,3 B, C2 =D/4C/4D3/2- D4 | ^B,6 F2 z2 z2 | %25
 E,D,C,B,,C,A,, A,/4G,/4A,3/2- A,4- | A,G,F,E,F,D, ^B,/4A,/4B,3/2- B,4 | C=B,A,G,A,F, F6- | %28
 FEDC^B,^A, G,F,E,D,C,=B,, | A,,3 B,, G,,2 F,,3 G,, E,,2 | D,,3 E,, F,,2 ^B,,,3 D,, F,,2 | %31
 E,,E,F,G,A,F, D,E,F,D,^B,,C, | D,^B,,G,,^A,,B,,C, D,E,F,G,^A,^B, | C=B,=A,G,A,F, G,6- | %34
 G,-G,^^F,G,^A,D, E,6- | E,D,C,B,,C,E, ^^F,6 | D,,4 z8 | z DCB,A,F, G,D,E,C, G,,G,- | %38
 G,2 F,2 A,2 G,6 |[M:2/2] z8 | z8 | z8 | z8 | G,8 | ^^F,4 B,4 | ^A,8 | G,4 =A,4- | %47
 A,2 G,F, G,2 C2 | F,2 G,A, B,4- | B,2 A,2 G,2 F,2 | G,4 F,2 E,2 | D,6 =D,2 | C,8- | C,8 | z8 | %55
 z8 | z8 | z8 | z4 G,4 | ^^F,4 B,4 | ^A,8 | G,2 A,2 G,2 F,2 | ^E,4 A,4 | G,8 | F,8- | %65
 F,2 G,F, E,2 F,G, | A,2 F,2 G,4 | C,8- | C,8- | C,4 F,4 | E,2 D,2 E,2 F,2 | G,2 F,2 G,2 A,2 | %72
 B,8- | B,8- | B,4 C4 | =C4 E4 | D8 | C8- | C2 B,2 ^A,2 G,2- | G,2 ^^F,^E, F,4 | %80
 G,^A,G,^^F, G,A,B,G, | A,B,A,G, ^A,B,CA, | B,CB,^A, ^B,CDB, | C8 | z8 | z8 | z8 | z8 | z8 | z8 | %90
 z4 F,4 | ^E,4 A,4 | G,8 | F,8 | z8 | x8 | x8 | x8 | x8 | z2 G,2 C2 C2 | C2 ^B,^A, B,4 | C4 A,4 | %102
 F,4 G,4 | ^E,4 F,4 | F,2 E,D, E,4 | D,8 | z8 | z8 | z2 D,2 G,2 G,2 | G,2 F,E, F,4- | %110
 F,A,G,F, ^E,D,E,C, | F,^E,F,G, A,G,A,B, | C^B,CD z4 | z2 G,,2 C,2 C,2 | C,2 =C,^A,, ^B,,4 | %115
 C,4 z4 | z8 | z8 | z8 | z8 | C,8 | =C,4 E,4 | D,8 | C,2 E,2 A,2 A,2 | A,2 G,F, G,4- | G,4 F,4 | %126
 G,8 | A,4 F,4- | F,F,E,D, E,2 C,2 | G,8 | F,4 D,4 | E,D,E,F, E,D,C,E, | D,C,D,E, D,C,^B,,D, | %133
 C,2 z2 z4 | x8 | z2 F,2 B,2 B,2 | B,2 A,G, A,G,F,E, | D,4 z2 G,2 | D2 D2 D2 C^B, | C8 | ^B,4 E4- | %141
 E2 C,2 F,2 F,2 | F,2 ^E,D, C,4- | C,4 D,4- | D,2 D,2 G,2 G,2 | G,2 F,E, F,2 F,2 | %146
 F,2 E,D, E,2 D,C, | D,2 G,,2 C,2 C,2 | C,2 B,,^A,, C,4- | C,E, F,2- F,E,D,C, | G,8 | A,6 G,A, | %152
 B,2 A,2 G,2 F,2 | C2 B,A, G,2 F,2 | G,8 |] %155
V:4
 C,12- | C,12 | ^B,,6- B,,4 C,2 | G,12- | G,6 F,6- | F,6 E,6- | E,6 D,6 | E,12 | D,6 G,3 F, G,2 | %9
 C,6- C,3 D, E,2 | x12 | x12 | E,/4D,/4E,/- E,2 D, C,2 D,4 D,,2 | G,,6- G,,6 | %14
 C,D,C,B,,C,^A,,- A,,6 | B,/4A,/4B,3/2- B,4- B,B,=A,G,A,F, | D,E,D,C,D,^B,, G,,3 ^A,, B,,2 | %17
 C,6- C,D,E,F,G,A, | B,4- B,B, ^E,6 | F,12 | G,3 A, B,2 E,6- | E,3 D, C,2 D,6 | %22
 G,3 ^A, ^B,2 C3 =B,=A,G, | F,6- F,3 E, F,2 | ^D,3 F, A,2- A,G,F,E,F,D, | x12 | x12 | x12 | x12 | %29
 x12 | x12 | x12 | x12 | x6 G,4 G,,2 | ^A,,6- A,,3 B,, B,,2 | ^^F,,6- F,,3 G,, ^A,,2 | x12 | %37
 x6 x4 G,,2 | C,12 |[M:2/2] x8 | C,8 | ^B,,4 E,4 | D,8 | C,2 D,2 E,4- | E,2 D,C, D,2 G,2 | %45
 C,2 D,E, F,4- | F,2 E,2 D,2 C,2 | D,4 C,4- | C,2 B,,2 A,,2 G,,2 | A,,4 _B,,4 | =C,4 ^C,4 | %51
 G,,2 A,,2 B,,4- | B,,2 A,,2 G,,2 F,,2 | C,4 A,,4- | A,,2 G,,2 F,,2 E,,2 | F,,4 G,,4 | %56
 A,,2 G,,2 A,,2 B,,2 | C,2 B,,2 C,2 D,2 | E,4 C,4- | C,2 B,,2 ^A,,2 G,,2 | C,4 D,4 | G,,4 z4 | x8 | %63
 x8 | x8 | x8 | x8 | x8 | z4 B,,4 | ^A,,4 D,4 | C,8 | B,,8- | B,,2 G,2 F,2 E,2 | B,4 B,,4 | %74
 E,4 A,4 | G,4 ^C4- | C4 ^B,4 | x8 | x8 | x8 | x8 | x8 | x8 | z2 C,D, E,2 F,2 | G,F,G,A, G,F,E,G, | %85
 F,E,F,G, F,E,D,F, | E,D,E,F, E,A,G,A, | D,C,D,E, D,G,F,G, | C,4 z4 | x8 | x8 | x8 | x8 | x8 | %94
 z2 E,2 A,2 A,2 | A,2 G,F, G,4 | A,4 F,4 | B,,4 E,4 | A,,8 | G,,4 z4 | x8 | x8 | x8 | x8 | %104
 z2 G,,2 C,2 C,2 | C,2 B,,^A,, B,,A,,G,,B,, | ^A,,G,,=A,,B,, A,,G,,F,,A,, | %107
 G,,F,,G,,^A,, G,,B,,A,,G,, | ^^F,,4 G,,4 | ^A,,4 D,4 | G,,4 z4 | x8 | C,,8 | B,,,4 E,,4 | D,,8 | %115
 C,,2 C,,D,, E,,2 F,,2 | G,,F,,G,,A,, G,,F,,E,,G,, | F,,E,,F,,G,, F,,E,,D,,F,, | E,,2 E,2 A,2 A,2 | %119
 A,2 G,2 G,2 G,,2 | C,2 B,,2 A,,4 | G,,2 z2 z4 | x8 | x8 | x8 | C,,2 C,2 F,2 F,2 | F,2 ^E,D, F,4 | %127
 F,4 z4 | x8 | z2 G,,2 C,2 C,2 | C,2 B,,^A,, B,,C,D,B,, | E,,4 z2 A,,2 | C,,4 z2 G,,2 | %133
 C,,2 E,2 A,2 A,2 | A,2 =G,F, E,4 | x8 | z4 C,4 | ^B,,4 E,4 | D,8 | C,2 E,2 A,2 A,2 | %140
 A,2 G,F, E,D,C,=B,, | ^A,,4 =A,,4- | A,,2 G,,F,, ^E,,4 | F,,8 | G,,8- | G,,8- | G,,8- | G,,8 | %148
 ^^F,,8 | G,,8- | G,,8 | C,8- | C,8- | C,8- | !fermata!C,8 |] %155
V:5
 x12 | x12 | x12 | x12 | x12 | x12 | x12 | x12 | x12 | x12 | x12 | x12 | x12 | x12 | x12 | x12 | %16
 x12 | x12 | x12 | x12 | x12 | x12 | x12 | x12 | x12 | x12 | x12 | x12 | x12 | x12 | x12 | x12 | %32
 x12 | x12 | x12 | x12 | ^^f6- f4 g2 | x6 x4 D2 | C4 D2 ^E6 |[M:2/2] x8 | x8 | x8 | x8 | x8 | x8 | %45
 x8 | z4 C4 | ^B,4 E4 | D8 | C4 F4- | F2 E2 D2 C2 | C4 B,4 | C4 F4- | F2 E2 D2 C2 | D4 G4 | %55
 z2 A2 G2 F2 | ^E2 C2 F4 | E8- | E4 F2 E2 | D4 z4 | x8 | x8 | x8 | x8 | z4[I:staff +1] C4 | %65
 ^B,4 E4 | D8 | C8- | C8 | F,2 G,2 ^A,2 B,2 |[I:staff -1] C8 | z4 E4 | x8 | F8 | E4 z4 | x8 | x8 | %77
 z4 G4 | ^^F4 B4 | ^A8- | A2 D2 G4 | G2 FE F4- | F2 EF G4- | G8- | G8 | x8 | x8 | x8 | %88
 z2[I:staff +1] C2 F2 F2 | F2 FD E4 | F2 F,G, A,2 B,2 | CB,C=D CB,A,C | B,A,B,C B,A,G,B, | %93
 A,G,A,B, A,B,C=D | E=DEF EDCE | =DCDE DCB,D | CB,C=D CB,A,C | B,8 | A,G,F,E, D,C,^B,,C, | %99
 D,4[I:staff -1] z4 | x8 | x8 | x8 | x8 | x8 | x8 | x8 | x8 | x8 | x8 | x8 | x8 | x4 EDEF | %113
 GFGA GFEG | FEFG FEDF | EDEF EDCE | D4 z4 | x8 | x8 | x8 | x8 | z2[I:staff +1] G,2 C2 C2 | %122
 C2 =C^A, ^B,4 |[I:staff -1] C4 z4 |[I:staff +1] B,6[I:staff -1] F2 | ^E4 F4 | %126
[I:staff +1] B,4 C4- | C4- CCB,A, | G,8 | x8 | x8 | x8 | x8 | x8 | %134
[I:staff -1] z2[I:staff +1] B,2 E2 E2 | E2 =DC B,2[I:staff -1] z2 | z2 C2 F2 F2 | F2 E2 E4 | %138
 F6- FG | A2 GF G2 FE | D4 E4- | E4 D2 C2 | D2 EF G2 G2 | G2 FE D2 C2 | ^B,4 C4- | C4 D4 | %146
 C2 C2 F2 F2 | F2 ED E2 FG | ^A4 D4- | D4 E4 | D6 EF | ^E2 C6 | C2 C2 F2 F2 | F4 ^E2 D2 | x4 z4 |] %155
V:6
 x12 | x12 | x12 | x12 | x12 | x12 | x12 | x12 | x12 | x12 | x12 | x12 | x12 | x12 | x12 | x12 | %16
 x12 | x12 | x12 | x12 | x12 | x12 | x12 | x12 | x12 | x12 | x12 | x12 | x12 | x12 | x12 | x12 | %32
 x12 | x12 | x12 | x12 | x12 | x12 | x12 |[M:2/2] x8 | x8 | x8 | x8 | x8 | x8 | x8 | x8 | x8 | x8 | %49
 x8 | x8 | x8 | x8 | x8 | x8 | x8 | x8 | x8 | x8 | x8 | x8 | x8 | x8 | x8 | x8 | x8 | x8 | x8 | %68
 x8 | x8 | x8 | x8 | x8 | x8 | x8 | x8 | x8 | x8 | x8 | x8 | x8 | x8 | x8 | x8 | x8 | x8 | x8 | %87
 x8 | x8 | x8 | x8 | x8 | x8 | x8 | x8 | x8 | x8 | x8 | x8 | x8 | x8 | x8 | x4 z4 | %103
 z2 C,2 F,2 F,2 | G,8 | ^^F,4 G,4 | ^E,2 z2 z4 | x8 | x8 | x8 | x8 | x8 | x8 | x8 | x8 | x8 | x8 | %117
 x8 | x8 | x8 | x8 | x8 | x8 | x8 | x8 | x8 | x8 | x8 | x8 | x8 | x8 | x8 | x8 | x8 | x8 | x8 | %136
 x8 | x8 | x8 | x8 | x8 | x8 | x8 | x8 | x8 | x8 | x8 | x8 | x8 | x8 | x8 | x8 | x8 | x8 | x8 |] %155
V:7
 x12 | x12 | x12 | x12 | x12 | x12 | x12 | x12 | x12 | x12 | x12 | x12 | x12 | x12 | x12 | x12 | %16
 x12 | x12 | x12 | x12 | x12 | x12 | x12 | x12 | x12 | x12 | x12 | x12 | x12 | x12 | x12 | x12 | %32
 x12 | x12 | x12 | x12 | x12 | x12 | x12 |[M:2/2] x8 | x8 | x8 | x8 | x8 | x8 | x8 | x8 | x8 | x8 | %49
 x8 | x8 | x8 | x8 | x8 | x8 | x8 | x8 | x8 | x8 | x8 | x8 | x8 | x8 | x8 | x8 | x8 | x8 | x8 | %68
 x8 | x8 | x8 | x8 | x8 | x8 | x8 | x8 | x8 | x8 | x8 | x8 | x8 | x8 | x8 | x8 | x8 | x8 | x8 | %87
 x8 | x8 | x8 | x8 | x8 | x8 | x8 | x8 | x8 | x8 | x8 | x8 | x8 | x8 | x8 | x8 | x8 | x8 | x8 | %106
 x8 | x8 | x8 | x8 | x8 | x8 | x8 | x8 | x8 | x8 | x8 | x8 | x8 | x8 | x8 | x8 | x8 | x8 | x8 | %125
 x8 | x8 | x8 | x8 | x8 | x8 | x8 | x8 | x8 | x8 | x8 | x8 | x8 | x8 | x8 | x8 | x8 | x8 | x8 | %144
 x8 | x8 | x8 | x8 | x8 | x8 | x8 | x8 | x8 | x8 | ^E8 |] %155

